X: 131020
T: Mill of Roleen
S: Darley & McCall Collection 
Z: B.Black 
L: 1/8
M: 6/8
R: jig
K: G
G2E DEG|edc dBA|G2E DEG|BAG AGE|
G2E DEG|edc dBA|G2E DEG|BGG G3 :|
d2B GBd|ged edB|d2B GBd|dBG AFD|
d2B GBd|ged edB|G2E DEG|BGG G3 :|
